hero/solid/folder-plus.svg

<svg width="24" height="24" viewBox="0 0 24 24" fill="none" xmlns="http://www.w3.org/2000/svg">
<path fill-rule="evenodd" clip-rule="evenodd" d="M19.5 21C21.1569 21 22.5 19.6569 22.5 18V9C22.5 7.34315 21.1569 6 19.5 6H14.1213C13.9224 6 13.7316 5.92098 13.591 5.78033L11.4697 3.65901C11.0477 3.23705 10.4754 3 9.87868 3H4.5C2.84315 3 1.5 4.34315 1.5 6V18C1.5 19.6569 2.84315 21 4.5 21H19.5ZM12.75 10.5C12.75 10.0858 12.4142 9.75 12 9.75C11.5858 9.75 11.25 10.0858 11.25 10.5V12.75H9C8.58579 12.75 8.25 13.0858 8.25 13.5C8.25 13.9142 8.58579 14.25 9 14.25H11.25V16.5C11.25 16.9142 11.5858 17.25 12 17.25C12.4142 17.25 12.75 16.9142 12.75 16.5V14.25H15C15.4142 14.25 15.75 13.9142 15.75 13.5C15.75 13.0858 15.4142 12.75 15 12.75H12.75V10.5Z" fill="#0F172A"/>
</svg>

<svg viewBox="0 0 24 24" xmlns="http://www.w3.org/2000/svg"><path fill-rule="evenodd" d="M19.5 21v0c1.65 0 3-1.35 3-3V9v0c0-1.66-1.35-3-3-3h-5.38v0c-.2-.01-.39-.08-.53-.22l-2.13-2.12V3.65c-.43-.43-1-.66-1.6-.66H4.48v0c-1.66 0-3 1.34-3 3v12 0c0 1.65 1.34 3 3 3h15Zm-6.75-10.5v0c0-.42-.34-.75-.75-.75 -.42 0-.75.33-.75.75v2.25H9v0c-.42 0-.75.33-.75.75 0 .41.33.75.75.75h2.25v2.25 0c0 .41.33.75.75.75 .41 0 .75-.34.75-.75v-2.25H15v0c.41 0 .75-.34.75-.75 0-.42-.34-.75-.75-.75h-2.25V10.5Z"/></svg>
